X:2854
T:Bj\"ornborgarnes Marsch
C:anon.
O:France / Sweden / Finland
S:Eidsvollmusikk II no. 80
R:March
Z:Transcribed by Frank Nordberg - http://www.musicaviva.com
F:http://abc.musicaviva.com/tunes/france/bjornborgarnes-marsch.abc
M:C
L:1/8
K:G
"_f"G4A4|B>AB>c d3d|d>cc>c c>BB>B|B>AA>A A(DEF)|G4A4|B>AB>cd3d|d>cc>c c>FF>F|G2G>GG2z2::"_p"B2B>BB3^D|E2F2G>F E>D|^C2B>BA3^C|D2E2F(DEF)|G4A4|B>AB>c d3d|d>cc>c c>FF>F|G2G>GG2z2::d6^d2|e4-e(f/e/ d/c/B/A/)|G>FF>F F>DE>F|G>FG>B e(^d=dc)|B4A>GF>G|A>^GA>B c3e|e>dd>d d([Dd][Ee][Ff])|[G2g2]G>GG2>G2 H :|
W:
W:
W:  From Musica Viva - http://www.musicaviva.com
W:  the Internet center for free sheet music downloads.
